app/img/icons/ic--safe.svg

<svg xmlns="http://www.w3.org/2000/svg" preserveAspectRatio="xMidYMid" width="30" height="30" viewBox="0 0 30 30"><defs><style>.cls-1{fill:#fff;fill-rule:evenodd}</style></defs><path d="M19.097 17.235c.922 0 1.744-.38 2.357-.969l.042-.034a3.414 3.414 0 0 0 .998-2.413c0-.928-.385-1.771-.998-2.396v-.016h-.008a3.368 3.368 0 0 0-2.391-.979c-.923 0-1.779.371-2.383.979a3.411 3.411 0 0 0-.99 2.412c0 .944.369 1.797.99 2.413a3.355 3.355 0 0 0 2.383 1.003zm-1.377-4.817c.345-.337.84-.573 1.377-.573a2.04 2.04 0 0 1 1.401.573c.352.363.57.861.57 1.401 0 .548-.218 1.063-.57 1.408l-.034.026a1.942 1.942 0 0 1-1.367.548 1.922 1.922 0 0 1-1.377-.574 1.934 1.934 0 0 1-.587-1.408c0-.54.219-1.038.587-1.401zm-2.734 5.551a5.8 5.8 0 0 0 4.111 1.704c1.61 0 3.07-.65 4.128-1.704a5.891 5.891 0 0 0 1.694-4.15c0-1.603-.646-3.07-1.694-4.125-1.058-1.055-2.518-1.73-4.128-1.73-1.578 0-3.012.659-4.069 1.687l-.042.043a5.878 5.878 0 0 0-1.695 4.125c0 1.62.654 3.087 1.695 4.15zm1.007-7.272l.024-.033a4.354 4.354 0 0 1 3.08-1.266c1.216 0 2.332.499 3.121 1.299a4.38 4.38 0 0 1 1.283 3.122 4.384 4.384 0 0 1-1.283 3.137 4.411 4.411 0 0 1-3.121 1.292 4.367 4.367 0 0 1-3.104-1.292 4.422 4.422 0 0 1-1.293-3.137c0-1.215.495-2.32 1.293-3.122zM28.813.001H1.176a1.19 1.19 0 0 0-1.175 1.19v25.281c0 .641.529 1.18 1.175 1.18h2.248V28.8c0 .675.529 1.198 1.183 1.198.663 0 1.175-.523 1.175-1.198v-1.148h18.433V28.8c0 .675.52 1.198 1.174 1.198.655 0 1.192-.523 1.192-1.198v-1.148h2.232c.653 0 1.19-.539 1.19-1.18V1.191c0-.65-.537-1.19-1.19-1.19zm-1.176 25.273H2.359V2.38h25.278v22.894zM5.363 19.74l-.043.034a2.196 2.196 0 0 0-.654 1.569c0 .624.251 1.173.654 1.569.403.397.957.641 1.561.641.587 0 1.107-.219 1.501-.591l.051-.05a2.187 2.187 0 0 0 0-3.138 2.313 2.313 0 0 0-.856-.54V7.939a2.237 2.237 0 0 0 1.518-2.108 2.23 2.23 0 0 0-.662-1.569 2.21 2.21 0 0 0-1.552-.65 2.222 2.222 0 0 0-2.215 2.219c0 .615.251 1.172.654 1.577a2.1 2.1 0 0 0 .848.531v11.295a1.987 1.987 0 0 0-.805.506zm.729-13.909c0-.211.076-.414.218-.566a.788.788 0 0 1 .571-.227c.218 0 .42.075.545.227h.009a.842.842 0 0 1 .234.566.808.808 0 0 1-.234.565l-.009.017a.827.827 0 0 1-.545.219.958.958 0 0 1-.571-.219v-.017a.794.794 0 0 1-.218-.565zm.218 14.955l.034-.033a.754.754 0 0 1 .52-.203h.034c.218 0 .403.084.528.236a.748.748 0 0 1 .243.557.779.779 0 0 1-.243.565l-.016.025a.76.76 0 0 1-.529.203.822.822 0 0 1-.571-.228.794.794 0 0 1-.218-.565c0-.219.076-.422.218-.557z" class="cls-1"/></svg>

<svg xmlns="http://www.w3.org/2000/svg" xmlns:xlink="http://www.w3.org/1999/xlink" preserveAspectRatio="xMidYMid" width="30" height="30" viewBox="0 0 30 30">
  <defs>
    <style>
      .cls-1 {
        fill: #fff;
        fill-rule: evenodd;
      }
    </style>
  </defs>
  <path d="M19.097,17.235 C20.019,17.235 20.841,16.855 21.454,16.266 L21.496,16.232 C22.109,15.616 22.494,14.763 22.494,13.819 C22.494,12.891 22.109,12.048 21.496,11.423 L21.496,11.407 L21.488,11.407 C20.884,10.799 20.028,10.428 19.097,10.428 C18.174,10.428 17.318,10.799 16.714,11.407 C16.093,12.030 15.724,12.891 15.724,13.819 C15.724,14.763 16.093,15.616 16.714,16.232 C17.318,16.847 18.174,17.235 19.097,17.235 L19.097,17.235 ZM17.720,12.418 L17.720,12.418 C18.065,12.081 18.560,11.845 19.097,11.845 C19.642,11.845 20.154,12.081 20.498,12.418 L20.498,12.418 C20.850,12.781 21.068,13.279 21.068,13.819 C21.068,14.367 20.850,14.882 20.498,15.227 L20.464,15.253 C20.112,15.599 19.625,15.801 19.097,15.801 C18.560,15.801 18.065,15.582 17.720,15.227 C17.352,14.882 17.133,14.367 17.133,13.819 C17.133,13.279 17.352,12.781 17.720,12.418 L17.720,12.418 ZM14.986,17.969 L14.986,17.969 L14.986,17.969 C16.042,19.023 17.494,19.673 19.097,19.673 C20.707,19.673 22.167,19.023 23.225,17.969 C24.273,16.906 24.919,15.439 24.919,13.819 C24.919,12.216 24.273,10.749 23.225,9.694 C22.167,8.639 20.707,7.964 19.097,7.964 C17.519,7.964 16.085,8.623 15.028,9.651 L14.986,9.694 C13.945,10.749 13.291,12.216 13.291,13.819 C13.291,15.439 13.945,16.906 14.986,17.969 L14.986,17.969 L14.986,17.969 ZM15.993,10.697 L15.993,10.697 L16.017,10.664 C16.806,9.879 17.897,9.398 19.097,9.398 C20.313,9.398 21.429,9.897 22.218,10.697 C23.023,11.499 23.501,12.604 23.501,13.819 C23.501,15.050 23.023,16.156 22.218,16.956 C21.429,17.749 20.313,18.248 19.097,18.248 C17.880,18.248 16.781,17.749 15.993,16.956 C15.195,16.156 14.700,15.050 14.700,13.819 C14.700,12.604 15.195,11.499 15.993,10.697 L15.993,10.697 ZM28.813,0.001 L28.813,0.001 L1.176,0.001 C0.530,0.001 0.001,0.541 0.001,1.191 L0.001,26.472 C0.001,27.113 0.530,27.652 1.176,27.652 L3.424,27.652 L3.424,28.800 C3.424,29.475 3.953,29.998 4.607,29.998 C5.270,29.998 5.782,29.475 5.782,28.800 L5.782,27.652 L24.215,27.652 L24.215,28.800 C24.215,29.475 24.735,29.998 25.389,29.998 C26.044,29.998 26.581,29.475 26.581,28.800 L26.581,27.652 L28.813,27.652 C29.466,27.652 30.003,27.113 30.003,26.472 L30.003,1.191 C30.003,0.541 29.466,0.001 28.813,0.001 L28.813,0.001 ZM27.637,25.274 L27.637,25.274 L2.359,25.274 L2.359,2.380 L27.637,2.380 L27.637,25.274 L27.637,25.274 ZM5.363,19.740 L5.363,19.740 L5.320,19.774 C4.917,20.179 4.666,20.719 4.666,21.343 C4.666,21.967 4.917,22.516 5.320,22.912 L5.320,22.912 L5.320,22.912 C5.723,23.309 6.277,23.553 6.881,23.553 C7.468,23.553 7.988,23.334 8.382,22.962 L8.433,22.912 C8.836,22.516 9.095,21.967 9.095,21.343 C9.095,20.719 8.836,20.179 8.433,19.774 L8.433,19.774 L8.433,19.774 C8.198,19.538 7.905,19.352 7.577,19.234 L7.577,7.939 C7.905,7.830 8.198,7.644 8.433,7.408 L8.433,7.408 C8.836,7.003 9.095,6.446 9.095,5.831 C9.095,5.223 8.836,4.666 8.433,4.262 L8.433,4.262 C8.030,3.865 7.485,3.612 6.881,3.612 C6.277,3.612 5.723,3.865 5.320,4.262 L5.320,4.262 C4.917,4.666 4.666,5.223 4.666,5.831 C4.666,6.446 4.917,7.003 5.320,7.408 L5.320,7.408 C5.547,7.644 5.840,7.830 6.168,7.939 L6.168,19.234 C5.874,19.335 5.581,19.505 5.363,19.740 L5.363,19.740 ZM6.092,5.831 L6.092,5.831 C6.092,5.620 6.168,5.417 6.310,5.265 L6.310,5.265 C6.461,5.113 6.662,5.038 6.881,5.038 C7.099,5.038 7.301,5.113 7.426,5.265 L7.435,5.265 C7.577,5.417 7.669,5.620 7.669,5.831 C7.669,6.050 7.577,6.253 7.435,6.396 L7.426,6.413 C7.301,6.530 7.099,6.632 6.881,6.632 C6.662,6.632 6.461,6.530 6.310,6.413 L6.310,6.396 C6.168,6.253 6.092,6.050 6.092,5.831 L6.092,5.831 ZM6.310,20.786 L6.310,20.786 L6.344,20.753 C6.479,20.626 6.662,20.550 6.864,20.550 L6.898,20.550 C7.116,20.550 7.301,20.634 7.426,20.786 C7.577,20.921 7.669,21.124 7.669,21.343 C7.669,21.562 7.577,21.765 7.426,21.908 L7.410,21.933 C7.284,22.060 7.083,22.136 6.881,22.136 C6.662,22.136 6.461,22.052 6.310,21.908 C6.168,21.765 6.092,21.562 6.092,21.343 C6.092,21.124 6.168,20.921 6.310,20.786 L6.310,20.786 Z" class="cls-1"/>
</svg>
